X:493
T:no name
R:reel
Z:id:hn-reel-493
M:C|
K:Ador
EAAG ABcd|e2dB cBAc|BGGF G2DG|G2FG EGDG|
EAAG ABcd|egfa ~g3a|bgaf gedB|1 BAAG A2AG:|2 BAAG A2z2||
K:Bdor
|:FBBA BcdB|EAAG ABcA|FBBA Bcde|f2ea fbba|
bafe f2fg|afec ABBA|FBBA Bcde|f2ec dBB2:|
